img/kubitos.svg

<svg width="30" height="30" viewBox="0 0 30 30" fill="none" xmlns="http://www.w3.org/2000/svg">
<path d="M30 16.5059C30 16.2711 29.8726 16.0615 29.6812 15.9813L22.7419 13.0713V3.75107H22.7232C22.7934 3.47032 22.6619 3.17506 22.4232 3.07727L15.1651 0.0340039C15.0585 -0.0113346 14.9415 -0.0113346 14.8349 0.0340039L7.57681 3.07727C7.42198 3.14291 7.30669 3.29475 7.27077 3.48043H7.25806V13.0713L0.31875 15.9813C0.163911 16.047 0.048629 16.1988 0.0127016 16.3845H0V26.2767H0.0120968C-0.0411895 26.5503 0.090121 26.8269 0.31875 26.9226L7.57681 29.9658C7.68333 30.0114 7.80054 30.0114 7.90706 29.9658L15 26.9916L22.0929 29.9658C22.1995 30.0114 22.3167 30.0114 22.4232 29.9658L29.6812 26.9226C29.8282 26.861 29.9402 26.7211 29.9819 26.5473H30V16.6551C30 16.6551 29.9996 16.5564 30 16.5059ZM7.25806 28.6447L0.967742 26.0074V17.3024L7.25806 19.9404V28.6447ZM7.74194 18.9555L1.8998 16.5059L7.70383 14.0715L13.5466 16.5219L7.74194 18.9555ZM14.5161 26.0074L8.22581 28.6447V19.9404L14.5161 17.3024V26.0074ZM14.5161 15.7093L8.22581 13.0713V4.39837L14.5161 7.03637V15.7093ZM9.15786 3.6018L15 1.15212L20.8421 3.6018L15 6.05148L9.15786 3.6018ZM21.7742 4.39837V13.0713L15.4839 15.7093V7.03637L21.7742 4.39837ZM21.7742 28.6447L15.4839 26.0074V17.3024L21.7742 19.9404V28.6447ZM22.2581 18.9555L16.4534 16.5219L22.2962 14.0715L28.1002 16.5059L22.2581 18.9555ZM29.0323 26.0074L22.7419 28.6447V19.9404L29.0323 17.3024V26.0074Z" fill="black"/>
</svg>

<svg width="30" height="30" xmlns="http://www.w3.org/2000/svg" fill="none" viewBox="0 0 30 30"><path fill="#000" d="M30 16.506c0-.235-.127-.445-.319-.525l-6.94-2.91v-9.32h-.018c.07-.28-.061-.576-.3-.674L15.165.034a.418.418 0 00-.33 0L7.577 3.077a.541.541 0 00-.306.403h-.013v9.591l-6.94 2.91a.541.541 0 00-.305.403H0v9.893h.012c-.053.273.078.55.307.646l7.258 3.043a.416.416 0 00.33 0L15 26.992l7.093 2.974a.416.416 0 00.33 0l7.258-3.043a.534.534 0 00.3-.376H30V16.505zM7.258 28.645l-6.29-2.638v-8.705l6.29 2.638v8.705zm.484-9.69L1.9 16.506l5.804-2.433 5.843 2.45-5.805 2.434zm6.774 7.052l-6.29 2.638V19.94l6.29-2.638v8.705zm0-10.298l-6.29-2.638V4.398l6.29 2.638v8.673zM9.158 3.602L15 1.152l5.842 2.45L15 6.052l-5.842-2.45zm12.616.796v8.673l-6.29 2.638V7.036l6.29-2.638zm0 24.247l-6.29-2.638v-8.705l6.29 2.638v8.705zm.484-9.69l-5.805-2.433 5.843-2.45 5.804 2.434-5.842 2.45zm6.774 7.052l-6.29 2.638V19.94l6.29-2.638v8.705z"/></svg>
